X: 27
T: Qongren langong dang niuma
L: 1/8
M: 2/4
K: Bb
fc2c [I:setbarnb 1]| 
c'3f' | 
c' g b g | 
f4 | 
fc2f | 
g2g d' | 
g d f d | 
c4 |]

@@@ Tune index: 8901
